!!!!SEGMENT: pl-kk--i-545--017_anonim--koronka-do-matki-boskiej-zawitaj-ranna-jutrzenko.krn
!!!cenid: 18xx:4494
!!!COM: Anonim
!!!COM-rismID: pe30004985
!!!CDT:
!!!CNT:
!!!OTL: Koronka do Matki Boskiej/Zawitaj ranna Jutrzenko
!!!PDT:
!!!AGN: Sacred
!!!YEC: Copyright 2022 Narodowy Instytut Fryderyka Chopina (https://polishscores.org)
!!!YEM: License CC-BY-4.0 (https://creativecommons.org/licenses/by/4.0)
!!!SMS-siglum: PL-Kk
!!!SMS-shelfmark: I.545
!!!SMS-variant:
!!!SMS-altvar:
!!!SMS-shelfwork: 017 W
!!!NIFC-rismSourceID: 1001210831
!!!NIFC-rismChildID: 1001210999
!!!NIFC-islandoraID: pl-kk:17058
!!!URL-pdf-islandora: https://repozytorium.nifc.pl/islandora/object/pl-kk%3A17058/datastream/PDF/view
!!!URL-scan: https://polish.musicsources.pl/pl/lokalizacje/galeria/rekopisy/7172/12 @EN{Scan on Polish Music Sources Website} @PL{Skany w portalu Dziedzictwo Muzyki Polskiej w otwartym dostępie}
!!!IIIF:
!!!ONB-nifc: UWAGA: 11r.
!!!AIN: 1 alto 1 bass 1 soprn 1 tenor
!!!key: g
**kern	**kern	**text
*part2	*part1	*part1
*staff2	*staff1	*staff1
*ICvox	*ICvox	*
*Itenor&Ibass	*Isoprn&Ialto	*
*I"[Voci]	*I"[Voci]	*
*clefF4	*clefG2	*
*k[b-e-]	*k[b-e-]	*
*g:	*g:	*
*M3/4	*M3/4	*
*>[A,B,B]	*>[A,B,B]	*>[A,B,B]
*^	*^	*
*>A	*>A	*>A*>A	*>A	*>A
4G/	4G\	4g/	4g\	Za-
=1	=1	=1	=1	=1
2.d/	2G\	2b-/	2g\	-wi-
.	4D\	4a/	4f#X\	-taj
=2	=2	=2	=2	=2
2d/	2G\	4b-/	2g\	ran-
.	.	4b-/	.	-na
4f/	4F\	4cc/	4a\	Ju-
=3	=3	=3	=3	=3
4f/	4B-\	(2dd/	(2b-\	-trzen-
2e-/	2F#X\	.	.	.
.	.	4cc/)	4a\)	.
=4	=4	=4	=4	=4
2d/	2G\	2b-/	2g\	-ko
4B-/	4B-\	4dd 4f/	4f\	I
=5	=5	=5	=5	=5
2.B-/	4BB-\	2dd/	2f\	grze-
.	4D\	.	.	.
.	4G\	4dd/	4g\	-chów
=6	=6	=6	=6	=6
4B-/	2E-\	2.ee-/	(2g\	na-
2c/	.	.	.	.
.	4F\	.	4a\)	.
=7	=7	=7	=7	=7
2.B-/	4G\	2dd/	(4b-\	-szych
.	4D\	.	4f\)	.
.	4E-\	4dd/	4g\	le-
=8	=8	=8	=8	=8
4B-/	4E-\	2.cc/	(4g\	-kar-
2A/	2F\	.	4f\	.
.	.	.	4e-\)	.
=9	=9	=9	=9	=9
2B-/	2BB-\	2b-/	2d\	-ko
4r	4ryy	4r	4r	.
!!LO:LB:g=original
=10!|:	=10!|:	=10!|:	=10!|:	=10!|:
*>B	*>B	*>B	*>B	*>B
4B-/	4B-\	4dd/	4f\	Tyś
4A/	4F#X\	4cc/	4e-\	ła-
4B- 4G/	4G\	4b-/	4d\	-nią
=11	=11	=11	=11	=11
2c/	2D\	2a/	2f#X\	świa-
4B-/	4G\	4b-/	4g\	-ta
=12	=12	=12	=12	=12
2.d/	4BB-\	4dd/	4f\	Jes-
.	4AA\	4cc/	4f#X\	-teś
.	4GG\	4b-/	4g\	i
=13	=13	=13	=13	=13
4e-/	4C\	2a/	(4g\	Ksież-
4d/	4D\	.	4f#X\)	.
4B-/	4GG\	4g/	4g\	-ną
=14	=14	=14	=14	=14
4A/	2.F\	4cc/	4f\	A-
4G/	.	4cc/	4en\	-niel-
4A/	.	4cc/	4f\	-ską
=15	=15	=15	=15	=15
4B-/	4BB-\	2dd/	(4f\	jes-
2e-/	2C\	.	2a\)	.
.	.	4cc/	.	-teś
=16	=16	=16	=16	=16
4d/	2.D\	4b-/	4g\	Kró-
2c/	.	2a/	(4g\	-lo-
.	.	.	4f#X\)	.
=17	=17	=17	=17	=17
2.B-/	2.G\	2.g/	2.g\	-wą.
*v	*v	*	*	*
*	*v	*v	*
=:|!	=:|!	=:|!
*-	*-	*-
!!!system-decoration: {(s1,s2)}
!!!RDF**kern: i = editorial accidental
!!!RDF**kern: > = above
!!!RDF**kern: < = below
!!!RDF**kern: N = linked
!!!RDF**dynam: > = "dim.", fontstyle= "italic"
!!!RDF**kern: @ = marked note, color=red
!!!ENC: Filip Voros
!!!EED: Katarzyna Serwa
!!!END: 2023-10-29
!!!EEV: 2024-04-23
